packages/core/src/svgs/tokens/branded/MIM.svg

<svg width="24" height="24" viewBox="0 0 24 24" fill="none" xmlns="http://www.w3.org/2000/svg">
<path d="M9.05908 2.29413H14.9414V4.05883H9.05908V2.29413Z" fill="#5552FD"/>
<path d="M9.05908 18.1765H14.9414V19.9411H9.05908V18.1765Z" fill="#9695F8"/>
<path d="M7.29357 4.05878H9.05827V5.82348H7.29357V4.05878ZM5.52887 5.82348H7.29357V7.58819H5.52887V5.82348ZM9.05827 9.35286H10.8229V11.1175H9.05827V9.35286ZM13.1759 9.35286H14.9406V11.1175H13.1759V9.35286ZM3.76416 7.58819H5.52887V9.35286H3.76416V7.58819Z" fill="#5552FD"/>
<path d="M5.52979 14.647H7.29448V16.4117H5.52979V14.647Z" fill="#9695F8"/>
<path d="M5.52979 16.4119H7.29448V18.1766H5.52979V16.4119Z" fill="#5552FD"/>
<path d="M7.29346 16.4119H9.05816V18.1766H7.29346V16.4119Z" fill="#9695F8"/>
<path d="M7.29357 18.1764H9.05827V19.9411H7.29357V18.1764ZM3.76416 14.647H5.52887V16.4117H3.76416V14.647Z" fill="#5552FD"/>
<path d="M18.4712 14.647H16.7065V16.4117H18.4712V14.647Z" fill="#9695F8"/>
<path d="M18.4712 16.4119H16.7065V18.1766H18.4712V16.4119Z" fill="#5552FD"/>
<path d="M16.7057 16.4119H14.9409V18.1766H16.7057V16.4119Z" fill="#9695F8"/>
<path d="M16.7053 18.1764H14.9405V19.9411H16.7053V18.1764ZM20.2347 14.6471H18.47V16.4117H20.2347V14.6471ZM7.29346 7.58819H9.05816V16.4117H7.29346V7.58819ZM14.9405 7.58819H16.7053V16.4117H14.9405V7.58819ZM18.47 7.58819H20.2347V9.35286H18.47V7.58819ZM14.9405 4.05878H16.7053V5.82348H14.9405V4.05878ZM16.7053 5.82348H18.47V7.58819H16.7053V5.82348Z" fill="#5552FD"/>
<path d="M9.05908 4.05878H14.9414V5.82348H9.05908V4.05878Z" fill="#9695F8"/>
<path d="M9.05908 19.9412H14.9414V21.7058H9.05908V19.9412Z" fill="#5552FD"/>
<path d="M7.29346 5.82355H9.05816V7.58826H7.29346V5.82355Z" fill="#9695F8"/>
<path d="M5.52979 9.35284H7.29448V14.647H5.52979V9.35284Z" fill="#FED955"/>
<path d="M5.52887 7.5882H7.29357V9.35287H5.52887V7.5882ZM3.76416 9.35287H5.52887V14.6471H3.76416V9.35287ZM20.2348 9.35287H18.4701V14.6471H20.2348V9.35287Z" fill="#9695F8"/>
<path d="M2 9.35284H3.7647V14.647H2V9.35284ZM22 9.35284H20.2353V14.647H22V9.35284Z" fill="#5552FD"/>
<path d="M16.7057 9.35284H18.4704V14.647H16.7057V9.35284ZM10.8232 9.35284H13.1762V11.1175H10.8232V9.35284Z" fill="#FED955"/>
<path d="M16.7057 7.58826H18.4704V9.35293H16.7057V7.58826ZM14.9409 5.82355H16.7057V7.58826H14.9409V5.82355Z" fill="#9695F8"/>
<path d="M9.05908 5.82355H14.9414V7.58826H9.05908V5.82355ZM9.05908 7.58826H14.9414V9.35293H9.05908V7.58826ZM14.9414 11.1176V18.1765H9.05908V11.1176H14.9414Z" fill="#FED955"/>
<path d="M10.8232 11.1177H13.1762V12.8825H10.8232V11.1177Z" fill="#5552FD"/>
</svg>

<svg xmlns="http://www.w3.org/2000/svg" width="24" height="24" fill="none" viewBox="0 0 24 24">
    <path fill="#5552FD" d="M9.06 2.294h5.881V4.06H9.06z"/>
    <path fill="#9695F8" d="M9.06 18.177h5.881v1.764H9.06z"/>
    <path fill="#5552FD" d="M7.294 4.059h1.764v1.764H7.294zM5.529 5.823h1.765v1.765H5.529zm3.53 3.53h1.764v1.765H9.058zm4.117 0h1.765v1.765h-1.765zM3.764 7.588H5.53v1.765H3.764z"/>
    <path fill="#9695F8" d="M5.53 14.647h1.764v1.765H5.53z"/>
    <path fill="#5552FD" d="M5.53 16.412h1.764v1.765H5.53z"/>
    <path fill="#9695F8" d="M7.293 16.412h1.765v1.765H7.293z"/>
    <path fill="#5552FD" d="M7.294 18.176h1.764v1.765H7.294zm-3.53-3.529H5.53v1.765H3.764z"/>
    <path fill="#9695F8" d="M18.471 14.647h-1.765v1.765h1.765z"/>
    <path fill="#5552FD" d="M18.471 16.412h-1.765v1.765h1.765z"/>
    <path fill="#9695F8" d="M16.706 16.412H14.94v1.765h1.765z"/>
    <path fill="#5552FD" d="M16.705 18.176h-1.764v1.765h1.764zm3.53-3.529H18.47v1.765h1.765zM7.293 7.588h1.765v8.824H7.293zm7.648 0h1.764v8.824h-1.764zm3.529 0h1.765v1.765H18.47zm-3.53-3.53h1.765v1.765h-1.764zm1.765 1.765h1.765v1.765h-1.765z"/>
    <path fill="#9695F8" d="M9.06 4.059h5.881v1.764H9.06z"/>
    <path fill="#5552FD" d="M9.06 19.941h5.881v1.765H9.06z"/>
    <path fill="#9695F8" d="M7.293 5.824h1.765v1.764H7.293z"/>
    <path fill="#FED955" d="M5.53 9.353h1.764v5.294H5.53z"/>
    <path fill="#9695F8" d="M5.529 7.588h1.765v1.765H5.529zM3.764 9.353H5.53v5.294H3.764zm16.47 0H18.47v5.294h1.765z"/>
    <path fill="#5552FD" d="M2 9.353h1.765v5.294H2zm20 0h-1.765v5.294H22z"/>
    <path fill="#FED955" d="M16.706 9.353h1.764v5.294h-1.764zm-5.883 0h2.353v1.765h-2.353z"/>
    <path fill="#9695F8" d="M16.706 7.588h1.764v1.765h-1.764zM14.94 5.824h1.765v1.764H14.94z"/>
    <path fill="#FED955" d="M9.06 5.824h5.881v1.764H9.06zm0 1.764h5.881v1.765H9.06zm5.881 3.53v7.059H9.06v-7.06z"/>
    <path fill="#5552FD" d="M10.823 11.118h2.353v1.765h-2.353z"/>
</svg>
